Papirus-nordic/24x24/places/folder-nordic-android.svg

<svg xmlns="http://www.w3.org/2000/svg" width="24" height="24" version="1"><rect width="20" height="12" x="2" y="9.5" rx="1" ry="1" opacity=".2"/><rect width="20" height="12" x="2" y="9.5" rx="1" ry="1" opacity=".2"/><path d="M2 17c0 .554.446 1 1 1h18c.554 0 1-.446 1-1V6c0-.554-.446-1-1-1H11V4c0-.554-.446-1-1-1H3c-.554 0-1 .446-1 1" fill="#6c9b9a"/><rect width="20" height="12" x="2" y="8.5" rx="1" ry="1" opacity=".2"/><rect width="16" height="8" x="4" y="7" rx="1" ry="1" fill="#e4e4e4"/><rect width="20" height="12" x="2" y="9" rx="1" ry="1" fill="#82abaa"/><path d="M3 3c-.554 0-1 .446-1 1v.5c0-.554.446-1 1-1h7c.554 0 1 .446 1 1V4c0-.554-.446-1-1-1zm8 2v.5h10c.554 0 1 .446 1 1V6c0-.554-.446-1-1-1z" opacity=".1" fill="#fff"/><path d="M8 12a1 1 0 0 0-.697 1.717l.674.674c-.48.622-.841 1.52-.967 2.832-.037.77.775.771.775.771l7.43.031s.835.002.795-.806c-.132-1.311-.496-2.205-.975-2.821l.682-.681A1 1 0 0 0 14.99 12a1 1 0 0 0-.687.303l-.961.961c-.64-.192-1.284-.221-1.789-.229-.545-.009-1.223.015-1.889.215l-.947-.947A1 1 0 0 0 8 12zm1.5 3a.5.5 0 0 1 .5.5.5.5 0 0 1-.5.5.5.5 0 0 1-.5-.5.5.5 0 0 1 .5-.5zm4 0a.5.5 0 0 1 .5.5.5.5 0 0 1-.5.5.5.5 0 0 1-.5-.5.5.5 0 0 1 .5-.5z" fill="#4e6766"/></svg>

<svg xmlns="http://www.w3.org/2000/svg" width="24" height="24" version="1">
 <rect style="opacity:0.2" width="20" height="12" x="2" y="9.5" rx="1" ry="1"/>
 <rect style="opacity:0.2" width="20" height="12" x="2" y="9.5" rx="1" ry="1"/>
 <path style="fill:#6c9b9a" d="M 2,17 C 2,17.554 2.446,18 3,18 H 21 C 21.554,18 22,17.554 22,17 V 6 C 22,5.446 21.554,5 21,5 H 11 V 4 C 11,3.446 10.554,3 10,3 H 3 C 2.446,3 2,3.446 2,4"/>
 <rect style="opacity:0.2" width="20" height="12" x="2" y="8.5" rx="1" ry="1"/>
 <rect style="fill:#e4e4e4" width="16" height="8" x="4" y="7" rx="1" ry="1"/>
 <rect style="fill:#82abaa" width="20" height="12" x="2" y="9" rx="1" ry="1"/>
 <path style="opacity:0.1;fill:#ffffff" d="M 3,3 C 2.446,3 2,3.446 2,4 V 4.5 C 2,3.946 2.446,3.5 3,3.5 H 10 C 10.554,3.5 11,3.946 11,4.5 V 4 C 11,3.446 10.554,3 10,3 Z M 11,5 V 5.5 H 21 C 21.554,5.5 22,5.946 22,6.5 V 6 C 22,5.446 21.554,5 21,5 Z"/>
 <path style="fill:#4e6766" d="M 8 12 A 1 1 0 0 0 7.3027 13.717 L 7.9766 14.391 C 7.4972 15.013 7.1357 15.911 7.0098 17.223 C 6.973 17.993 7.7852 17.994 7.7852 17.994 L 15.215 18.025 C 15.215 18.025 16.05 18.027 16.01 17.219 C 15.878 15.908 15.514 15.014 15.035 14.398 L 15.717 13.717 A 1 1 0 0 0 14.99 12 A 1 1 0 0 0 14.303 12.303 L 13.342 13.264 C 12.702 13.072 12.058 13.043 11.553 13.035 C 11.008 13.026 10.33 13.05 9.6641 13.25 L 8.7168 12.303 A 1 1 0 0 0 8 12 z M 9.5 15 A 0.5 0.5 0 0 1 10 15.5 A 0.5 0.5 0 0 1 9.5 16 A 0.5 0.5 0 0 1 9 15.5 A 0.5 0.5 0 0 1 9.5 15 z M 13.5 15 A 0.5 0.5 0 0 1 14 15.5 A 0.5 0.5 0 0 1 13.5 16 A 0.5 0.5 0 0 1 13 15.5 A 0.5 0.5 0 0 1 13.5 15 z"/>
</svg>
